**kern
*staff1
*head1[head1]
*solo1[solo1]
*solo2[solo2]
*solo3[solo3]
*solo4[solo4]
=1-
*clefG2
*k[]
*B-:
*M4/4
1r
=2
1r
=3
1r
=4
2r
4r
8r
*>head1
{[8b-\
=5
4b-\]
8a/L
8f#/J
8g\L
8b-\
8cc\
8dd\J
=6
4ee-\
8r
[8g-/
8g-\L]
[8dd-\
8dd-\]
8b-\J
=7
12cc\L
12dd-\
12cc\J
8b-/L
8g/J
4b-\
12f/L
12a-/
12ee-/J
=8
8gg\L
8ff\J
4gg\
8r
[8ff\L
8ff\]
8ee-\J
=9
4ff\
8r
[8b-\
8b-\L]
[8cc\
8cc\]
[8b-\J
=10
8b-\L]
[8ff\
8ff\]
8ee-\J
8b-/L
8g-/
8dd/
[8a/J
=11
4a/]
8r
8ff\
4cc\
8r
8ff\
=12
12dd\L
12ee-\
12ff\J
16dd\LL
16b-\J
8ee-\J
4r
8r
[8dd\
=13
8dd\L]
[8b-\
8b-\]
8g\J
8b-/L
8g/J
4b-\
=14
8r
[8b-\L
8b-\]
8g\J
4b-\
8r
[8dd\
=15
4dd\]
8b-/L
8f/J
24a-/LL
24b-/
24a-/JJ
8f/L
8g/
[8f/J
=16
4f/]
8r
8f/
24a-/LL
24b-/
24a-/JJ
8f/L
8an/
8b-/J}
=17
4r
8r
*>solo1
{8c/
24B-/LL
24c/
24B-/JJ
8A/L
8c/
[8B-/J
=18:|!
8B-/L]
8G/J
12c/L
12e-/
12g/J
8b-/L
8g-/
8e-/
8B-/J
=19
4.d/
[8f/
4f/]}
4r
=20
2r
8.r
{32g/LLL
32a-/JJ
8g/
16f/L
16e/JJ
=21
16e-/LL
16c/
16B-/
16A-/JJ
16G/LL
16B-/
16c/
16e-/JJ
16b-/LL
16g-/
16d/
16B-/JJ
4c/
=22
8r
8F#/
16G/LL
16B-/
16c/
16d/JJ
4f/
8e-/L
8G-/J
=23
8F/L
8e-/J
12c/L
12c#/
12d/J
4a/}
4r
=24
2r
4r
{16b-/LL
16a-/
16e-/
16c/JJ
=25
16b-/LL
16a/
16g/
16g-/JJ
16f/LL
16e/
16e-/
16G/JJ
4B-/
4r
=26
8r
24d/LL
24c/
24B-/JJ
8G/L
16c/L
16B-/JJ
4A/
8g-/L
16e-/L
16en/JJ
=27
4f/
8r
8b-\
8a\L
16b-\L
16cc\J
8b-\J
8r
=28
4r
8f/L
8b-/J
8dd\L
8ee-\
8dd\
8cc\J
=29
8b-/L
8a/
8a-/J
8r
8bn\L
16cc\L
16b\J
8g\
[8f\J
=30||
4f/]
8e-/L
8B-/J
8c/L
8d-/J
24B-/LL
24c/
24B-/JJ
8G/
=31
4.d/
8f/
8c/L
[8A-/J
4A-/]}
=32
2r
4r
8r
{24b-\LL
24b-\
24b-\JJ
=33
24cc#\LL1E-:dom
24dd\
24cc#\JJ
[8b-\L
8b-\]
8cc#\J
4r
8r
8b-\
=34
24a-/LL
24b-/
24a-/JJ
8f/L
8e-/
8B-/J
8c/L
8d-/
8B-/
8G/J
=35
8c/L
8A/J
12B-/L
12d/
12f/J
8a/L
8a-/
8g/
8g-/J
=36
8f/
8r
24a-/LL
24b-/
24a-/JJ
8g/
4f/
8e-/L
8d/J
=37
8B/L
[8c/J
4c/]}
2r
=38
8r
{8d/L
8e-/
8f/J
12g-/L
12a-/
12g-/J
8f/L
8e-/J
=39
[4d/
8d/L]
16f/L
16d/JJ
8c/L
[8F/J
4F/]}
=40
2r
4r
*>solo2
{12f\L
12b-\
12dd\J
=41
8ff\L
8ee-\
8dd\
8b-\J
4r
8r
24b-\LL
24b-\
24b-\JJ
=42||
8ee\L
[8ee-\J
4ee-\]
4r
8r
8b-\
=43
4dd\
24b-\LL
24cc\
24b-\JJ
8f/
8cc/L
8f/
8g/
8a-/J}
=44
2r
8r
{4.cc\
=45
8b-\L
16cc\L
16b-\J
8g\
8f\J
8e-/L
8A/
8B-/
8c/J
=46
8d-/L
8B-/J
2c/
24B-/LL
24c/
24B-/JJ
8G/
=47
[4d/
8d/L]
16f/L
16a/JJ
8cc\L
8b-\J
24a/LL
24b-/
24a/JJ
8g/
=48
4d/
4r
8r
16a-/LL
16g/JJ
16f/LL
16e-/
16d/
16c/JJ
=49
16B/LL
16A-/
16G/
16F/JJ
4E-/}
4r
8r
{24dd\LL
24cc\
24b-\JJ
=50
8g/L
8f/
8e-/
8G/J
8B-/L
8d/
8c/
8B-/J
=51
16A/LL
16c/
16e-/
16g-/J
8f/
8A/J
8B-/L
8e-/
8d/
8B-/J
=52
4e-/}
4r
8r
{4.d/
=53
*>solo3
4b-\
2b-\
4r
=54||
8a-/L
8b-/
8a-/
8g/J
8f/L
8f/
8e-/
8B-/J
=55
4d/
8f/L
8e-/J
8d/
4.A-/}
=56
4r
8r
{[8b-\
4b-\]
8cc\L
8b-\J
=57
8dd-/L
[8e-/J
4e-/]}
2r
=58
4r
8r
{8cc\
24dd-\LL
24cc\
24b-\JJ
8a-/
12f/L
12e-/
12B-/J
=59
4.d/
8f/}
2r
=60
2r
2r
=61
{8a/L
16cc/L
16a/JJ
16b/LL
16a-/
16e/
16c#/JJ
16b-/LL
16an/
16g/
16g-/JJ
16f/LL
16e/
16e-/
16G/JJ
=62
24B-/LL
24c/
24d/JJ
16c/LL
16B-/JJ
16A/LL
16f#/
16e-/
16en/JJ
16fn/LL
16A/
16B-/
16e-/JJ
16c/LL
16c#/
16d/
16B-/JJ
=63
16c/LL
16B-/
16A/
16B-/JJ
16d/LL
16f/
16g/
16a/JJ
16cc/LL
16a/
16b/
16a-/JJ
16e/LL
16c#/
16b-/
16an/JJ
=64
16g/LL
16g-/
16f/
16e/JJ
4e-/
8r
8d/
16f/LL
16e-/
16d/
16c/JJ
=65
16A/LL
16B-/
16c/
16A/JJ
16B-/LK
[8.F/J
4F/]}
4r
==
*-
